X: 21082
Q: "Slow."
M: C
L: 1/8
K: Eb
[|\
e3f g2(gf) | (fe)(eB) B4 | c2B2e2(de) | {d2}c4 B4 |\
e2e2 (eg) (gb) | B2(Bc) (cB)(AG) | (AB)(cd) efeA | {G2}F4 E4 |]
[|\
e2e2 (eg) (gb) | B2(Bc cBAG) | (AB)(cd) (e>f)eA | {G2}F4 E4 |]


